X: 6347
T: Casey's Favourite
R: strathspey
M: 4/4
K: Gmajor
|:d>c|B>GG>A B>c d2|(3efe d>B A2 d>c|B>GG>A B>cd>B|(3efe d>B G2:|
g>a|b>ga>f g>fe>d|e>aa>^g a2 =g>a|b>ga>f g>fe>d|e>^de>f g2 g>a|
(3bag a>g b>ga>g|e>aa>^g a2 =g>a|b>c'b>a g>fe>d|e>aa>f g>e||

